X:1
T:Title
%%score { ( 1 3 ) | 2 }
L:1/8
M:3/4
K:E
V:1 treble nm="Grand Piano"
V:3 treble 
V:2 bass 
V:1
 z2 z[Q:1/4=92] G EG | [GB]3 [Ac] [GB][EG] | [GB]3 G EF | G3 G [DF][CE] |[M:3/8] [DF]3 | GEG | %6
[M:3/4] z2 z2 .A2 | [Ec]3 [Ec] [EB][B,EG] | [EGB]3 [B,EG] [A,DF][B,DG] |[M:2/4] [G,E]4 | %10
[M:1/4] [B,EG][B,GB] |[M:3/4] [Ge]3 [Gf] [ce][Ac] | [Ac] [GB]3 [GB][GB] | [Ge]3 [EG] [DF][CE] | %14
[M:2/4] [DF]4 |[M:1/4] [EG][GB] |[M:3/4] [Ge]3 [Gf] [ce][Ac] | [Ac] [GB]3 [B,EG][B,FA] | %18
 [EGB]3 [B,EG] [A,DF][B,DG] |[M:3/8] [G,E]3 |] %20
V:2
 z2 z [E,B,E] [E,G,][E,B,E] | [E,E]3 [E,E] [E,E][E,B,] | [E,E]3 [E,B,E] [E,G,B,][E,A,B,] | %3
 [E,B,E]3 [E,B,E] [B,,A,][C,G,] |[M:3/8] [B,,B,]3 | [E,B,E][E,G,][E,B,E] | %6
[M:3/4] [E,E]3 [=D,B,] [C,C][B,,G,] | [A,,A,]3 [A,,A,] [E,G,]E, | E,3 E, B,,B,, |[M:2/4] E,4 | %10
[M:1/4] E,E, |[M:3/4] [E,B,]3 [G,^B,] [A,C][A,E] | [E,E] [E,E]3 [E,E][E,E] | %13
 [E,B,]3 [E,B,] [B,,A,][C,G,] |[M:2/4] [B,,B,]4 |[M:1/4] [E,B,][E,B,] | %16
[M:3/4] [E,B,]3 [G,^B,] [A,C][A,E] | [E,E] [E,E]3 E,E, | E,3 E, B,,B,, |[M:3/8] E,3 |] %20
V:3
 x6 | x6 | x6 | x6 |[M:3/8] x3 | x3 |[M:3/4] [GB]3 [EG] E-[EB] | x6 | x6 |[M:2/4] x4 |[M:1/4] x2 | %11
[M:3/4] x6 | x6 | x6 |[M:2/4] x4 |[M:1/4] x2 |[M:3/4] x6 | x6 | x6 |[M:3/8] x3 |] %20

